X:1
T:Title
%%score [ 1 | 2 | 3 | 4 ] { ( 5 6 ) | ( 7 8 ) }
L:1/8
Q:1/4=114
M:4/4
K:G
V:1 treble nm="Soprano"
V:2 treble nm="Alto"
V:3 treble-8 nm="Tenor"
V:4 bass nm="Bass"
V:5 treble nm="Piano\nfor practice only"
V:6 treble 
V:7 bass 
V:8 bass 
V:1
"^Moderato (ca. 68)"!mf! d4 (GA) B c | d2 g4 f2 | g2 e2 c2 B2 |{B} A4 z2 A2 | B2 ^c2 d2 e2 | %5
 f2 g2 e2 (fd) | (B2 ^c2) d4 | e3 d ^c2 d2 | (ed) (cB) A2 z2 | d4 (GA) B c | d2 g4 f2 | %11
 g2 e2 c2 B2 |{B} A4 z2 d2 | d2 d2 ^c2 c2 | d2 e2 f2 d2 |{d} ^c4 z4 | d4 (BG) (AB) | %17
 ^c2 d2 e2 (dc) | d2 B2 A2 A2 |{A} G4 z2 G2 | A2 B2 c2 d2 | e2 =f2 d2 e2 | (c2 d2) e4 | %23
 =f3 f (fe) (dc) | d2 e2 =f2 e2 | (d2 e2) c4 | z4!mp! (AB) (cd) | (ef) g2 e2 c2 |{e} d4 z2 d2 | %29
 d2 B2 A2 A2 |{A} G4 z2 d2 | (d2 cB) (c2 A2) |{c} B4 z2 d2 | (d2 cB) (c2 A2) |{c} B4 z2 B2 | %35
 c2 B2 A2 A2 | G2 B2 A2 c2 | d4 z2!p! B2 | c2 B2 A2 A2 |{A} G4 z4 ||!mf! d4 (GA) B c | d2 g4 f2 | %42
 g2 e2 c2 B2 |{B} A4 z2 A2 | B2 ^c2 d2 e2 | f2 g2 e2 (fd) | (B2 ^c2) d4 | e3 d ^c2 d2 | %48
 (ed) (cB) A2 z2 | d4 (GA) B c | d2 g4 f2 | g2 e2 c2 B2 |{B} A4 z2 d2 | d2 d2 ^c2 c2 | %54
 d2 e2 f2 d2 |{d} ^c4 z4 | d4 (BG) (AB) | ^c2 d2 e2 (dc) | d2 B2 A2 A2 |{A} G4 z2 G2 | %60
 A2 B2 c2 d2 | e2 =f2 d2 e2 | (c2 d2) e4 | =f3 f (fe) (dc) | %64
V:2
 z2!mf! (Bc) (dB) (GE) | D2 G2 c2 A2 | B2 G2 A2 D2 |{D} D4 z2 F2 | G2 G2 F2 ^A2 | B2 G2 A2 F2 | %6
 (G2 E2) D4 | E3 E E2 D2 | G2 G2 F2 z2 | z2 (Bc) (dB) (GE) | D2 G2 c2 A2 | B2 G2 A2 D2 | %12
{D} D4 z2 A2 | A2 B2 G2 E2 | A2 G2 F2 F2 |{F} E4 z4 | B4 (BA) (GF) | E2 F2 G2 (FE) | D2 G2 F2 F2 | %19
{F} E4 z2 E2 | E2 =F2 E2 F2 | E2 =F2 D2 E2 | (C2 D2) E4 | A3 A (AG) (=FE) | =F2 G2 F2 G2 | %25
 (=F2 G2) E4 | z4!mp! (cB) (AG) | (FG) A2 G2 E2 |{G} F4 z2 F2 | G2 B2 A2 F2 |{F} E4 z2 G2 | %31
 (G2 AB) (A2 F2) |{A} G4 z2 F2 | (G2 AB) (A2 F2) |{A} G4 z2 G2 | F2 G2 G2 F2 | G2 D2 F2 G2 | %37
 A4 z2!p! G2 | F2 G2 G2 F2 |{F} G4 z4 || z2!mf! (Bc) (dB) (GE) | D2 G2 c2 A2 | B2 G2 A2 D2 | %43
{D} D4 z2 F2 | G2 G2 F2 ^A2 | B2 G2 A2 F2 | (G2 E2) D4 | E3 E E2 D2 | G2 G2 F2 z2 | %49
 z2 (Bc) (dB) (GE) | D2 G2 c2 A2 | B2 G2 A2 D2 |{D} D4 z2 A2 | A2 B2 G2 E2 | A2 G2 F2 F2 | %55
{F} E4 z4 | B4 (BA) (GF) | E2 F2 G2 (FE) | D2 G2 F2 F2 |{F} E4 z2 E2 | E2 =F2 E2 F2 | %61
 E2 =F2 D2 E2 | (C2 D2) E4 | A3 A (AG) (=FE) | %64
V:3
!mf! d4 (GA) B c | d2 g4 f2 | g2 e2 c2 B2 |{B} A4 z2 A2 | B2 ^c2 d2 e2 | f2 g2 e2 (fd) | %6
 (B2 ^c2) d4 | g3 f e2 d2 | g2 (fe) d2 z2 | d4 (GA) B c | d2 g4 f2 | g2 e2 c2 B2 |{B} A4 z2 d2 | %13
 d2 d2 e2 e2 | d2 B2 A2 f2 |{f} e4 z4 | d4 (BG) (AB) | ^c2 d2 e2 (dc) | d2 B2 A2 A2 |{A} G4 z2 G2 | %20
 A2 B2 c2 d2 | e2 =f2 d2 e2 | (c2 d2) e4 | =f3 f (fe) (dc) | d2 e2 =f2 e2 | (d2 e2) c4 | %26
 z4!mp! (AB) (cd) | (ef) g2 e2 c2 |{e} d4 z2 d2 | d2 B2 A2 A2 |{A} G4 z2 d2 | (d2 cB) (c2 A2) | %32
{c} B4 z2 d2 | (d2 cB) (c2 A2) |{c} B4 z2 B2 | c2 B2 A2 A2 | G2 B2 A2 c2 | d4 z2!p! B2 | %38
 c2 B2 A2 A2 |{A} G4 z4 ||!mf! d4 (GA) B c | d2 g4 f2 | g2 e2 c2 B2 |{B} A4 z2 A2 | B2 ^c2 d2 e2 | %45
 f2 g2 e2 (fd) | (B2 ^c2) d4 | g3 f e2 d2 | g2 (fe) d2 z2 | d4 (GA) B c | d2 g4 f2 | g2 e2 c2 B2 | %52
{B} A4 z2 d2 | d2 d2 e2 e2 | d2 B2 A2 f2 |{f} e4 z4 | d4 (BG) (AB) | ^c2 d2 e2 (dc) | d2 B2 A2 A2 | %59
{A} G4 z2 G2 | A2 B2 c2 d2 | e2 =f2 d2 e2 | (c2 d2) e4 | =f3 f (fe) (dc) | %64
V:4
 z2!mf! (B,C) (DB,) (G,E,) | D,2 B,2 D2 D,2 | E,2 C,2 F,2 G,2 |{G,} F,4 z2 D,2 | G,2 E,2 F,2 ^C,2 | %5
 D,2 E,2 ^C,2 D,2 | (G,2 A,2) B,4 | ^C3 D E2 F2 | E2 A,2 D,2 z2 | z2 (B,C) (DB,) (G,E,) | %10
 D,2 B,2 D2 D,2 | E,2 C,2 F,2 G,2 |{G,} F,4 z2 F,2 | F,2 G,2 E,2 A,2 | F,2 E,2 D,2 B,,2 | %15
{B,,} A,,4 z4 | B,4 (B,A,) (G,F,) | E,2 F,2 G,2 (F,E,) | D,2 G,2 F,2 F,2 |{F,} E,4 z2 E,2 | %20
 E,2 D,2 E,2 D,2 | E,2 =F,2 D,2 E,2 | (C,2 D,2) E,4 | =F,3 F, (F,G,) (A,^A,) | B,2 C2 D2 C2 | %25
 (B,2 C2) C,4 | z4!mp! (CB,) (A,G,) | (F,G,) A,2 C2 E,2 |{G,} F,4 z2 F,2 | G,2 B,2 A,2 F,2 | %30
{F,} E,4 z2 G,2 | (G,2 A,B,) (A,2 F,2) |{A,} G,4 z2 A,2 | (G,2 A,B,) (A,2 F,2) |{A,} G,4 z2 G,2 | %35
 F,2 G,2 D,2 D,2 | G,2 G,2 F,2 E,2 | F,4 z2!p! G,2 | F,2 G,2 D,2 D,2 |{F,} G,4 z4 || %40
 z2!mf! (B,C) (DB,) (G,E,) | D,2 B,2 D2 D,2 | E,2 C,2 F,2 G,2 |{G,} F,4 z2 D,2 | G,2 E,2 F,2 ^C,2 | %45
 D,2 E,2 ^C,2 D,2 | (G,2 A,2) B,4 | ^C3 D E2 F2 | E2 A,2 D,2 z2 | z2 (B,C) (DB,) (G,E,) | %50
 D,2 B,2 D2 D,2 | E,2 C,2 F,2 G,2 |{G,} F,4 z2 F,2 | F,2 G,2 E,2 A,2 | F,2 E,2 D,2 B,,2 | %55
{B,,} A,,4 z4 | B,4 (B,A,) (G,F,) | E,2 F,2 G,2 (F,E,) | D,2 G,2 F,2 F,2 |{F,} E,4 z2 E,2 | %60
 E,2 D,2 E,2 D,2 | E,2 =F,2 D,2 E,2 | (C,2 D,2) E,4 | =F,3 F, (F,G,) (A,^A,) | %64
V:5
!mf! d4 GABc | d2 g4 f2 | g2 e2 c2 B2 |{B} A4 z2 [FA]2 | [GB]2 [G^c]2 [Fd]2 [^Ae]2 | %5
 [Bf]2 [Gg]2 [Ae]2 [df][Fd] | B2 ^c2 d4 | [Ge]3 [Fd] [E^c]2 [Dd]2 | edcB A2 z2 | d4 GABc | %10
 d2 g4 f2 | g2 e2 c2 B2 |{B} A4 z2 [Ad]2 | [Ad]2 [Bd]2 [G^c]2 [Ec]2 | [Ad]2 [Ge]2 [Ff]2 [Fd]2 | %15
{[Fd]} [E^c]4 z4 | d4 BAGA | ^c2 d2 e2 dc | d2 [GB]2 [FA]2 [FA]2 |{[FA]} [EG]4 z2 [EG]2 | %20
 [EA]2 [=FB]2 [Ec]2 [Fd]2 | [Ee]2 [=F=f]2 [Dd]2 [Ee]2 | [Cc]2 [Dd]2 [Ee]4 | %23
 [A=f]4 [Af][Ge][=Fd][Ec] | [=Fd]2 [Ge]2 [A=f]2 [Ge]2 | [=Fd]2 [Ge]2 [Ec]4 | %26
 z4!mp! [Ac][GB][Fc][Gd] | [Ae][Gf] [Ag]2 [Ge]2 [Ec]2 |{[Ge]} [Fd]4 z2 [Fd]2 | %29
 [Gd]2 [Bd]2 [Ad]2 [FA]2 |{[FA]} [EG]4 z2 [Gd]2 | [Gd]2 [Ac][Bd] [Ac]2 [FA]2 | %32
{[Ac]} [GB]4 z2 [Fd]2 | [Gd]2 [Ac][Bd] [Ac]2 [FA]2 |{[Ac]} [GB]4 z2 [GB]2 | %35
 [Fc]2 [GB]2 [GA]2 [FA]2 | [DG]2 [GB]2 [FA]2 [Gc]2 | [Ad]4 z2!p! [GB]2 | [Fc]2 [GB]2 [GA]2 [FA]2 | %39
{[FA]} G4 z4 ||!mf! d4 GABc | d2 g4 f2 | g2 e2 c2 B2 |{B} A4 z2 [FA]2 | [GB]2 [G^c]2 [Fd]2 [^Ae]2 | %45
 [Bf]2 [Gg]2 [Ae]2 [df][Fd] | B2 ^c2 d4 | [Ge]3 [Fd] [E^c]2 [Dd]2 | edcB A2 z2 | d4 GABc | %50
 d2 g4 f2 | g2 e2 c2 B2 |{B} A4 z2 [Ad]2 | [Ad]2 [Bd]2 [G^c]2 [Ec]2 | [Ad]2 [Ge]2 [Ff]2 [Fd]2 | %55
{[Fd]} [E^c]4 z4 | d4 BAGA | ^c2 d2 e2 dc | d2 [GB]2 [FA]2 [FA]2 |{[FA]} [EG]4 z2 [EG]2 | %60
 [EA]2 [=FB]2 [Ec]2 [Fd]2 | [Ee]2 [=F=f]2 [Dd]2 [Ee]2 | [Cc]2 [Dd]2 [Ee]4 | %63
 [A=f]4 [Af][Ge][=Fd][Ec] | %64
V:6
 x2 Bc dBGE | D2 G2 c2 A2 | B2 G2 A2 D2 |{D} D4 x4 | x4 F2 x2 | x8 | G2 E2 D4 | x8 | G2 G2 F2 x2 | %9
 x2 Bc dBGE | D2 G2 c2 A2 | B2 G2 A2 D2 |{D} D4 x2 D2 | D2 D2 E2 E2 | D2 B,2 A,2 F2 |{F} E4 x4 | %16
 B4 BAGF | E2 F2 G2 FE | D2 x6 | x8 | x8 | x8 | x8 | x8 | x8 | x8 | x8 | x8 | x8 | x8 | x8 | x8 | %32
 x8 | x8 | x8 | x8 | x8 | x8 | x8 | x8 || x2 Bc dBGE | D2 G2 c2 A2 | B2 G2 A2 D2 |{D} D4 x2 x2 | %44
 x4 F2 x2 | x8 | G2 E2 D4 | x8 | G2 G2 F2 x2 | x2 Bc dBGE | D2 G2 c2 A2 | B2 G2 A2 D2 | %52
{D} D4 x2 D2 | D2 D2 E2 E2 | D2 B,2 A,2 F2 |{F} E4 x4 | B4 BAGF | E2 F2 G2 FE | D2 x6 | x8 | x8 | %61
 x8 | x8 | x8 | %64
V:7
 D4 DB,G,E, | D,2 B,2 C2 D,2 | E,2 C,2 F,2 G,2 |{G,} F,4 z2 D,2 | G,2 E,2 F,2 ^C,2 | %5
 D,2 E,2 ^C,2 D,2 | G,2 A,2 B,4 | ^C3 D E2 F2 | E2 A,2 D,2 z2 | D4 DB,G,E, | D,2 B,2 C2 D,2 | %11
 E,2 C,2 F,2 G,2 |{G,} F,4 z2 F,2 | F,2 G,2 E,2 A,2 | F,2 E,2 D,2 B,,2 |{B,,} A,,4 z4 | %16
 B,4 B,A,G,F, | E,2 F,2 G,2 F,E, | D,2 G,2 F,2 F,2 |{F,} E,4 z2 E,2 | E,2 D,2 E,2 D,2 | %21
 E,2 =F,2 D,2 E,2 | C,2 D,2 E,4 | =F,4 F,G,A,^A, | B,2 C2 D2 C2 | B,2 C2 C,4 | z4 CB,A,G, | %27
 F,G, A,2 C2 E,2 |{G,} F,4 z2 F,2 | G,2 B,2 A,2 F,2 |{F,} E,4 z2 G,2 | G,2 A,B, A,2 F,2 | %32
{A,} G,4 z2 A,2 | G,2 A,B, A,2 F,2 |{A,} G,4 z2 G,2 | F,2 G,2 D,2 D,2 | G,2 G,2 F,2 E,2 | %37
 F,4 z2 G,2 | F,2 G,2 D,2 D,2 |{F,} G,4 z4 || D4 DB,G,E, | D,2 B,2 C2 D,2 | E,2 C,2 F,2 G,2 | %43
{G,} F,4 z2 D,2 | G,2 E,2 F,2 ^C,2 | D,2 E,2 ^C,2 D,2 | G,2 A,2 B,4 | ^C3 D E2 F2 | E2 A,2 D,2 z2 | %49
 D4 DB,G,E, | D,2 B,2 C2 D,2 | E,2 C,2 F,2 G,2 |{G,} F,4 z2 F,2 | F,2 G,2 E,2 A,2 | %54
 F,2 E,2 D,2 B,,2 |{B,,} A,,4 z4 | B,4 B,A,G,F, | E,2 F,2 G,2 F,E, | D,2 G,2 F,2 F,2 | %59
{F,} E,4 z2 E,2 | E,2 D,2 E,2 D,2 | E,2 =F,2 D,2 E,2 | C,2 D,2 E,4 | =F,4 F,G,A,^A, | %64
V:8
 x2 B,C x4 | x8 | x8 | x8 | x8 | x8 | x8 | x8 | x8 | x2 B,C x4 | x8 | x8 | x8 | x8 | x8 | x8 | x8 | %17
 x8 | x8 | x8 | x8 | x8 | x8 | x8 | x8 | x8 | x8 | x8 | x8 | x8 | x8 | x8 | x8 | x8 | x8 | x8 | %36
 x8 | x8 | x8 | x8 || x2 B,C x4 | x8 | x8 | x8 | x8 | x8 | x8 | x8 | x8 | x2 B,C x4 | x8 | x8 | %52
 x8 | x8 | x8 | x8 | x8 | x8 | x8 | x8 | x8 | x8 | x8 | x8 | %64

